images/golem.svg

<svg height="250" viewBox="0 0 250 250" width="250" xmlns="http://www.w3.org/2000/svg"><path d="m0 125v125h250v-250h-250zm174.316406-110.351562 2.734375 2.929687-12.5 12.597656-12.5 12.695313 2.441407 3.710937c4.589843 7.03125 6.835937 15.136719 6.835937 25.292969 0 8.691406-.585937 11.523438-3.417969 17.96875-2.148437 4.6875-6.835937 11.230469-10.742187 14.84375-3.808594 3.515625-14.257813 9.570312-16.601563 9.570312-.683594 0-2.832031.488282-4.785156 1.074219l-3.710938.976563v31.152344l2.734376.585937c17.675781 3.90625 28.710937 13.671875 35.351562 31.347656 1.953125 5.078125 1.367188 21.386719-.878906 27.441407-5.371094 14.355468-15.234375 23.828124-29.296875 28.125-5.46875 1.660156-17.675781 1.757812-22.460938.292968-20.214843-6.445312-32.324219-22.753906-32.324219-43.359375 0-8.789062.683594-11.816406 4.980469-20.605469 4.882813-10.15625 16.308594-19.433593 26.757813-21.972656 2.734375-.585937 5.46875-1.269531 6.152344-1.464844.976562-.292968 1.171874-4.003906.976562-16.210937l-.292969-15.917969-4.882812-1.074218c-15.332031-3.417969-27.148438-14.84375-32.519531-31.738282-.683594-1.855468-1.171876-6.933594-1.171876-11.328125 0-19.53125 11.230469-35.644531 29.492188-42.382812 10.839844-3.90625 27.148438-1.953125 36.914062 4.6875 1.855469 1.171875 3.90625 2.246093 4.492188 2.246093s6.445312-5.46875 12.988281-12.207031c6.640625-6.738281 12.109375-12.207031 12.207031-12.207031.097657 0 1.464844 1.269531 3.027344 2.929688zm0 0"/><path d="m106.835938 37.402344c-8.007813 3.027344-15.527344 9.863281-19.335938 17.285156-4.882812 9.570312-5.46875 18.261719-2.050781 28.808594 5.46875 16.894531 25.097656 27.539062 41.601562 22.558594 7.03125-2.148438 11.71875-4.980469 16.113281-9.570313 17.089844-17.773437 11.816407-47.070313-10.351562-57.714844-5.175781-2.441406-20.898438-3.320312-25.976562-1.367187zm0 0"/><path d="m107.226562 158.203125c-12.109374 4.589844-19.628906 13.085937-23.144531 25.976563-3.90625 14.355468 4.296875 32.128906 18.261719 39.746093 22.851562 12.402344 50.976562-5.273437 50.976562-32.03125 0-16.113281-10.15625-29.394531-26.269531-34.570312-4.882812-1.5625-14.550781-1.171875-19.824219.878906zm0 0"/></svg>

<svg xmlns="http://www.w3.org/2000/svg" xmlns:xlink="http://www.w3.org/1999/xlink" width="250px" height="250px" viewBox="0 0 250 250" version="1.1">
<g id="surface1">
<path style=" stroke:none;fill-rule:nonzero;fill:rgb(0%,0%,0%);fill-opacity:1;" d="M 0 125 L 0 250 L 250 250 L 250 0 L 0 0 Z M 174.316406 14.648438 L 177.050781 17.578125 L 164.550781 30.175781 L 152.050781 42.871094 L 154.492188 46.582031 C 159.082031 53.613281 161.328125 61.71875 161.328125 71.875 C 161.328125 80.566406 160.742188 83.398438 157.910156 89.84375 C 155.761719 94.53125 151.074219 101.074219 147.167969 104.6875 C 143.359375 108.203125 132.910156 114.257812 130.566406 114.257812 C 129.882812 114.257812 127.734375 114.746094 125.78125 115.332031 L 122.070312 116.308594 L 122.070312 147.460938 L 124.804688 148.046875 C 142.480469 151.953125 153.515625 161.71875 160.15625 179.394531 C 162.109375 184.472656 161.523438 200.78125 159.277344 206.835938 C 153.90625 221.191406 144.042969 230.664062 129.980469 234.960938 C 124.511719 236.621094 112.304688 236.71875 107.519531 235.253906 C 87.304688 228.808594 75.195312 212.5 75.195312 191.894531 C 75.195312 183.105469 75.878906 180.078125 80.175781 171.289062 C 85.058594 161.132812 96.484375 151.855469 106.933594 149.316406 C 109.667969 148.730469 112.402344 148.046875 113.085938 147.851562 C 114.0625 147.558594 114.257812 143.847656 114.0625 131.640625 L 113.769531 115.722656 L 108.886719 114.648438 C 93.554688 111.230469 81.738281 99.804688 76.367188 82.910156 C 75.683594 81.054688 75.195312 75.976562 75.195312 71.582031 C 75.195312 52.050781 86.425781 35.9375 104.6875 29.199219 C 115.527344 25.292969 131.835938 27.246094 141.601562 33.886719 C 143.457031 35.058594 145.507812 36.132812 146.09375 36.132812 C 146.679688 36.132812 152.539062 30.664062 159.082031 23.925781 C 165.722656 17.1875 171.191406 11.71875 171.289062 11.71875 C 171.386719 11.71875 172.753906 12.988281 174.316406 14.648438 Z M 174.316406 14.648438 "/>
<path style=" stroke:none;fill-rule:nonzero;fill:rgb(0%,0%,0%);fill-opacity:1;" d="M 106.835938 37.402344 C 98.828125 40.429688 91.308594 47.265625 87.5 54.6875 C 82.617188 64.257812 82.03125 72.949219 85.449219 83.496094 C 90.917969 100.390625 110.546875 111.035156 127.050781 106.054688 C 134.082031 103.90625 138.769531 101.074219 143.164062 96.484375 C 160.253906 78.710938 154.980469 49.414062 132.8125 38.769531 C 127.636719 36.328125 111.914062 35.449219 106.835938 37.402344 Z M 106.835938 37.402344 "/>
<path style=" stroke:none;fill-rule:nonzero;fill:rgb(0%,0%,0%);fill-opacity:1;" d="M 107.226562 158.203125 C 95.117188 162.792969 87.597656 171.289062 84.082031 184.179688 C 80.175781 198.535156 88.378906 216.308594 102.34375 223.925781 C 125.195312 236.328125 153.320312 218.652344 153.320312 191.894531 C 153.320312 175.78125 143.164062 162.5 127.050781 157.324219 C 122.167969 155.761719 112.5 156.152344 107.226562 158.203125 Z M 107.226562 158.203125 "/>
</g>
</svg>
